!!!!SEGMENT: pl-wtm--r-1468_stefani-jozef--juz-dla-cie-przyjazn-ma-byla-szczera.krn
!!!cenid: 18xx:2217
!!!COM: Stefani, Józef
!!!COM-rismid: pe30024097
!!!CDT: 1800/04/16-1876/03/19
!!!CNT: Polish
!!!OTL: Już dla Cię przyjaźń ma była szczera
!!!PDT:
!!!AGN:
!!!SMS-siglum: PL-Wtm
!!!SMS-shelfmark: R 1468
!!!SMS-shelfwork: W
!!!SMS-variant:
!!!SMS-altvar:
!!!NIFC-rismid: 1001121138
!!!URL-scan: http://repozytorium.nifc.pl/skany/pl-wtm-nut--r1468
!!!ONB-nifc:
!!!OMD: Adagio.
!!!AIN: 1 empty 1 vox
!!!key:
**kern	**kern	**dynam	**kern	**text	**dynam
*part2	*part2	*part2	*part1	*part1	*part1
*staff3	*staff2	*	*staff1	*staff1	*
*Iempty	*Iforte	*	*Ivox	*	*
*	*I"Fortepian	*	*I"Spiew	*	*
*clefF4	*clefG2	*	*clefG2	*	*
*k[b-]	*k[b-]	*	*k[b-]	*	*
*F:	*F:	*	*F:	*	*
*M4/4	*M4/4	*	*M4/4	*	*
*met(c)	*met(c)	*	*met(c)	*	*
*all\right	*all\right	*	*all\right	*	*
=1	=1	=1	=1	=1	=1
!	!	!LO:DY:rj	!	!	!
4r	2r	p	1r	.	.
4C/	.	.	.	.	.
*2\right	*	*	*	*	*
[2c [>2C\	8r	.	.	.	.
.	(8ccL 8e/	.	.	.	.
.	8bn 8f/	.	.	.	.
.	8b-XJ 8g/)	.	.	.	.
=2	=2	=2	=2	=2	=2
4c] 4C\]	4a 4f/	.	1r	.	.
4CC/	4r	.	.	.	.
[2C [2CC/	8r	.	.	.	.
.	(8aL 8f/	.	.	.	.
.	8g 8e/	.	.	.	.
.	8fJ 8d/	.	.	.	.
!!LO:LB:g=original
=3	=3	=3	=3	=3	=3
!LO:TX:t=P:problem=brak zakończenia ligatury	!LO:TX:t=P:problem=brak zakończenia łuku	!	!	!	!
8C] 8CC/]	8g 8e/)	.	1ryy	.	.
4.BB- 4.BBB-/	((4d-X^>/	.	.	.	.
.	8g) 8B-/)	.	.	.	.
2C 2CC/	8r	.	.	.	.
.	(>4c [4A^>/	.	.	.	.
.	8f 8A/])	.	.	.	.
=4	=4	=4	=4	=4	=4
*	*^	*	*	*	*
[>2C [>2CC\	4f/	N[[2B-< N[[2G</	.	2r	.	.
.	8e/L	.	.	.	.	.
.	8d/J	.	.	.	.	.
!	!LO:TX:b:t=V&colon; S&colon;	!	!	!	!	!
8C] 8CC\]	8e 8B-<N]] 8G</N]]	2ryy	.	8r;	.	.
!!LO:PB:g=original
=||	=||	=||	=||	=||	=||	=||
!	!	!	!	!LO:TX:a:i:t=dolce	!	!
8r	8cccL 8cc\	.	.	8cc\	Już	.
4r	8.bbn 8.bn\	.	.	8.bn\	dla	.
.	16cccJk 16cc\	.	.	16cc\	Cię	.
*	*v	*v	*	*	*	*
=5	=5	=5	=5	=5	=5
!	!	!LO:DY:rj	!	!	!
4F\	4aa 4a\	p	4a/	przy-	.
4c 4A\	8.f/L	.	8.f/	-jaźń	.
.	16f/Jk	.	16f/	ma	.
!	!	!	!	!	!LO:HP:a
4F\	(8.f/L	.	8.f/L	by-	<
.	32g/LL	.	32g/LL	.	.
.	32f/JJJ	.	32f/JJJ	.	.
4c 4A\	8e/L	.	8e/L	ła	.
.	8f/J)	.	8f/J	.	[[
=6	=6	=6	=6	=6	=6
!	!	!	!LO:TX:t=P:problem=diminuendolike accent	!	!LO:HP:a
4C\	4f#X 4d#X^>/	.	4f#X^>/	szcze-	.
4c\	4g 4e/	.	8g/	-ra,	.
.	.	.	8r	.	.
4C\	4r	.	4r	.	.
4c\	8.gL 8.e/	.	8.g/	Gdym	.
.	16aJk 16fn/	.	16a/	Cię	.
!!LO:LB:g=original
=7	=7	=7	=7	=7	=7
4C/	(4b- 4g/	.	4b-/	znał	.
4c\	8.gL 8.e/)	.	8.g/	ie-	.
.	16gJk 16e'/	.	16g/	-szcze	.
4C/	(4dd 4b-\	.	4dd\	dziec-	.
4c\	8.ccL 8.a\)	.	8.cc\	-kiem	.
.	16b-Jk 16g|\	.	16b-\	w po-	.
=8	=8	=8	=8	=8	=8
*^	*^	*	*	*	*
!	!	!	!	!	!LO:TX:t=P:problem=diminuendolike accent	!	!
4d 4Bn/	2F\	(4g#X^/	[4f\	.	4g#X^>/	-wi-	.
4c/	.	8a/)	8f\]	.	8a/	-ciu	.
.	.	8r	8ryy	.	8r	.	.
4F\	2ryy	8r	2ryy	.	8r	.	.
.	.	8cccL 8cc\	.	.	8cc\	Dziś	.
4c 4A\	.	8.bbn 8.bn\	.	.	8.bn\	Ci	.
.	.	16cccJk 16cc\	.	.	16cc\	się	.
*v	*v	*	*	*	*	*	*
*	*v	*v	*	*	*	*
=9	=9	=9	=9	=9	=9
4D\	4fff 4ff\	.	4ff\	ra-	.
4A 4F\	4aa 4a\	.	4a/	-dość	.
4D\	4a 4f/	.	4a/	le-	.
8D-X/L	8b-L 8f/	.	8b-\	-dwie	.
8AA/J	8ccJ 8f/	.	8cc\	o-	.
!!LO:LB:g=original
=10	=10	=10	=10	=10	=10
*	*	*	*2\right	*	*
2BB-/	(>2dd 2f/	.	(2dd\	-twie-	.
8BBn/	8g 8f/)	.	8g/)	-ra,	.
!	!	!	!	!	!LO:HP:a
8r	8r	.	8dd\	Mnie	<
4r	4r	.	8.ee\	się	.
.	.	.	16ff\	iuż	[[
=11	=11	=11	=11	=11	=11
!	!	!	!	!	!LO:HP:a
4C 4CC/	4r	.	4ff\	Koń-	>
4r	4a 4f 4c/	.	8.a/	-czą	.
.	.	.	16a/	i	]
4C 4CC/	4r	.	(8dd^\L	tro-	.
.	.	.	8cc\J)	.	.
4rFF	4e 4c 4B- 4G</	.	(8b-^>/L	-ski	.
.	.	.	8g/J)	.	.
=12	=12	=12	=12	=12	=12
2C 2CC/	4r	.	2g/	w ży-	.
.	(4g 4e (4B-/	.	.	.	.
4F 4FF/	4f) 4A/)	.	8f/	-ciu.	.
.	.	.	8f/	Tru-	.
4r	4r	.	8.e/	-dno	.
.	.	.	16f/	Ko-	.
!!LO:LB:g=original
=13	=13	=13	=13	=13	=13
4C 4CC/	4r	.	(8a^>/L	-cha-	.
.	.	.	8g/J)	.	.
4rFF	4e 4c 4G</	.	4g/	-na	.
4C 4CC/	4r	.	(8f#X/L	ma	.
!	!	!	!	!	!LO:HP:a
.	.	.	8g/J)	.	<
4rFF	4e 4c 4G</	.	8.bn\	przy-	.
.	.	.	16cc\	-ia-	[[
=14	=14	=14	=14	=14	=14
!	!	!	!	!	!LO:HP:a
4D 4DD\	4r	.	4cc\	-cioł-	>
4rFF	4f 4Bn 4G</	.	8bn\	-ko!	]
.	.	.	8r	.	.
4D 4DD\	4r	.	8r	.	.
.	.	.	8b\	Chwi-	.
4rFF	4f 4B 4G</	.	8b\	-la	.
.	.	.	8cc\	roz-	.
=15	=15	=15	=15	=15	=15
4BBn 4BBBn/	4r	.	4.dd\	-sta-	.
4rFF	4f 4d 4G</	.	.	.	.
.	.	.	8bn\	-nia	.
4BB 4BBB/	4r	.	(8g/L	nic	.
.	.	.	8a/J)	.	.
4rFF	4f 4d 4G</	.	8.g/	mnie	.
.	.	.	16f/	nie	.
!!LO:PB:g=original
=16	=16	=16	=16	=16	=16
4C 4CC\	4r	.	4f/	trwo-	.
4rFF	4e 4c 4G</	.	8e/	-zy	.
.	.	.	8r	.	.
4C 4CC\	4r	.	8r	.	.
.	.	.	8e/	Jak-	.
4rFF	4e 4c 4G</	.	8.e/	-Kol-	.
.	.	.	16f/	-wiek	.
=17	=17	=17	=17	=17	=17
4C 4CC/	4r	.	4a/	Krą-	.
4rFF	4e 4c 4G</	.	4g/	-ży	.
4C 4CC/	4r	.	(8g\L	nam	.
.	.	.	8ee\J)	.	.
4rFF	4e 4c 4G</	.	8dd\	ży-	.
.	.	.	8cc\	-cia	.
=18	=18	=18	=18	=18	=18
4F 4FF\	4r	.	4bn/	Kół-	.
4rFF	4f 4c 4A</	.	8a/	-ko	.
.	.	.	8r	.	.
!	!	!LO:DY:rj	!	!	!
2F#X 2FF#X\	2a 2e-X 2c/	f	4a/	Każ-	.
.	.	.	8.b\	-dy	.
.	.	.	16cc\	się	.
!!LO:LB:g=original
=19	=19	=19	=19	=19	=19
4G 4GG\	4r	.	4.cc\	wresz-	.
4r	4g 4en 4c/	.	.	.	.
.	.	.	8e/	-cie	.
4GG 4GGG/	4r	.	(8a/L	w zie-	.
.	.	.	8g/J)	.	.
4rFF	4f 4Bn 4G</	.	8.f/	-mi	.
.	.	.	16g/	po-	.
=20	=20	=20	=20	=20	=20
8.rEE	8.r<	.	2g/	-ło-	.
!	!	!LO:DY:rj	!	!	!
16CC\KL	16C</KL	f	.	.	.
8.GG\	8.G</	.	.	.	.
16EE\Jk	16E</Jk	.	.	.	.
8CC\	8C</	.	8c/	-ży,	.
8r	8cccL 8cc\	.	8cc\	Lecz	.
4r	8.bbn 8.bn\	.	8.bn\	Cie-	.
.	16cccJk 16cc\	.	16cc\	-bie	.
=21	=21	=21	=21	=21	=21
!	!	!LO:DY:rj	!	!	!
4F\	4.aa 4.a\	p	4.a/	Jul-	.
!LO:TUP:a:problem=klamra łukowa	!	!	!	!	!
12cL 12A'\	.	.	.	.	.
12c 12A'\	.	.	.	.	.
.	8ff 8f\	.	8f/	-ciu	.
12cJ 12A'\	.	.	.	.	.
4F\	(8.f/L	.	(8.f/L	pro-	.
.	32g/LL	.	32g/LL	.	.
.	32f/JJJ	.	32f/JJJ)	.	.
*Xtuplet	*	*	*	*	*
12cL 12A\	8.e/L)	.	8.e/	-szę	.
12c 12A\	.	.	.	.	.
12cJ 12A\	.	.	.	.	.
.	16f/Jk	.	16f/	je-	.
!!LO:LB:g=original
=22	=22	=22	=22	=22	=22
4C\	(4f#X^/	.	4f#X^>/	-dy-	.
*tuplet	*	*	*	*	*
!LO:TUP:a:problem=klamra łukowa	!	!	!	!	!
12cL 12B- 12E'\	8g/)	.	8g/	-nie	.
12c 12B- 12E'\	.	.	.	.	.
.	8r	.	8r	.	.
12cJ 12B- 12E'\	.	.	.	.	.
4C\	8r	.	8r	.	.
.	8gL 8e/	.	8g/	Gdy	.
*Xtuplet	*	*	*	*	*
12c\L	8.g 8.e/	.	8.g/	na	.
12c\	.	.	.	.	.
12c\J	.	.	.	.	.
!	!LO:SIC:v:n=2:s=16fn/	!	!	!	!
.	16a-XJk 16f#/	.	16a-X/	mych	.
=23	=23	=23	=23	=23	=23
4C\	4b- 4g/	.	4b-/	zwło-	.
12c\L	4g 4e/	.	4g/	-kach	.
12c\	.	.	.	.	.
12c\J	.	.	.	.	.
4C\	(4dd-X 4b-\	.	4dd-X\	sta-	.
12c\L	8.ccL 8.a-X/)	.	8.cc\	-nie	.
12c\	.	.	.	.	.
12c\J	.	.	.	.	.
.	16b-Jk 16g|>/	.	16b-\	mo-	.
=24	=24	=24	=24	=24	=24
*^	*	*	*	*	*
!	!	!	!	!LO:TX:t=P:problem=diminuendolike accent	!	!LO:DY:a
8.r	2F\	4g 4e/	.	4g^/	-gi-	.
16d-X/	.	.	.	.	.	.
4c/	.	4a-X 4f/	.	4a-X/	-ła,	.
4F 4FF/	2ryy	8r	.	8r	.	.
!	!	!	!	!	!	!LO:HP:a
.	.	8cccL 8cc\	.	8cc\	A-	<
4c 4An 4F\	.	8.bbn 8.bn\	.	8.bn\	-byś	.
.	.	16cccJk 16cc\	.	16cc\	wspo-	[[
*v	*v	*	*	*	*	*
!!LO:LB:g=original
=25	=25	=25	=25	=25	=25
!LO:N:vis=4	!	!LO:DY:rj	!	!	!LO:DY:rj:a
8D 8DD/	4.fff 4.ff\	f	4.ff\	-mnia-	f
8AL 8F 8D\	.	.	.	.	.
8A 8F 8D\	.	.	.	.	.
8AJ 8F 8D\	8aa 8a\	.	8a/	-ła	.
8DL 8DD/	8aaL 8a\	.	4a/	o	.
8D/J	8aJ 8f\	.	.	.	.
8.D-X/L	8.b-L 8.f/	.	8.b-\	sta-	.
16AA/Jk	16ccJk 16f/	.	16cc\	-ro-	.
=26	=26	=26	=26	=26	=26
2BB-/	(>2dd [2f/	.	2dd\	-wi-	.
8BBn/	8g 8f/])	.	8g/	-nie	.
!	!	!	!	!	!LO:HP:a
8r	8r	.	8dd\	Łzę	<
4r	4r	.	8.ee\	i	.
.	.	.	16ff\	wes-	[[
=27	=27	=27	=27	=27	=27
!	!LO:N:vis=4	!LO:DY:rj	!	!	!LO:HP:a
4C 4CC/	8r	p	4ff\	-tchnie-	>
.	8aL 8f 8c/	.	.	.	.
4r	8a 8f 8c/	.	8.a/	-nie	.
.	8aJ 8f 8c/	.	.	.	.
.	.	.	16a/	mu	]
8C 8CC\	8r	.	(8dd^\L	po-	.
8rEE	8e 8c 8B- 8G</	.	8cc\J)	.	.
8C 8CC\	8r	.	(8b-^>/L	-swię-	.
8rFF	8e 8c 8B- 8G</	.	8g/J)	.	.
=28	=28	=28	=28	=28	=28
!	!	!	!	!	!LO:DY:a
2C 2CC\	4r	.	2g/	-ci-	>
.	4e 4c 4B- 4G</	.	.	.	.
4F 4FF\	4f 4c 4A/	.	8f/	-ła.	]
.	.	.	8r	.	.
4r	8.r	.	4r	.	.
.	16cc\	.	.	.	.
!!LO:PB:g=original
=29	=29	=29	=29	=29	=29
!	!	!LO:DY:rj	!	!	!
4C/	([4gg\	f	1ryy	.	.
4c 4B- 4E\	16gg\LL]	.	.	.	.
.	32gg-X\L	.	.	.	.
.	32ff\JJJ	.	.	.	.
.	32ee\LLL	.	.	.	.
.	32ee-X\	.	.	.	.
.	32dd\	.	.	.	.
.	32dd-X\JJJ)	.	.	.	.
4C/	4cc\	.	.	.	.
4c 4B- 4E\	8.r	.	.	.	.
.	(16cc\	.	.	.	.
=30	=30	=30	=30	=30	=30
4F\	8.aa\L)	.	1ryy	.	.
.	16ee|\Jk	.	.	.	.
.	(8qgg/	.	.	.	.
4c 4A\	8.ff\L)	.	.	.	.
.	16dd|\Jk	.	.	.	.
4F\	4cc\	.	.	.	.
8c 8A\	4r	.	.	.	.
16r	.	.	.	.	.
16C/	.	.	.	.	.
!!LO:LB:g=original
=31	=31	=31	=31	=31	=31
[4G\	4r	.	1ryy	.	.
16G\LL]	2a 2e 2c/	.	.	.	.
(32G-X\L	.	.	.	.	.
32F\JJJ	.	.	.	.	.
32E\LLL	.	.	.	.	.
32E-X\	.	.	.	.	.
32D\	.	.	.	.	.
32D-X\JJJ	.	.	.	.	.
4C/)	.	.	.	.	.
!	!	!LO:DY:rj	!	!	!
4C 4CC/	(4e [>4c (4B-/	pp	.	.	.
=32	=32	=32	=32	=32	=32
8.FL 8.FF/	8.fL) 8.c] 8.A/)	.	1ryy	.	.
16BBn/K	16Bn/K	.	.	.	.
8.C/	8.c/	.	.	.	.
16AA/Jk	16A/Jk	.	.	.	.
4FF\	4F</	.	.	.	.
4r	4r	.	.	.	.
==	==	==	==	==	==
*-	*-	*-	*-	*-	*-
!!!system-decoration: <s1>{(s2,s3)}
!!!RDF**kern: > = above
!!!RDF**kern: < = below
!!!RDF**kern: | = vertical stroke
!!!RDF**kern: N = linked
!!!ENC: Andrzej Kubiczek
!!!END: 2021-06-05
!!!ENC: Katarzyna Serwa
!!!END: 2021-05-19
